X: 393
T:Eileen Aroon
M:3/4
L:1/4
B:O'Neill's 393
N:"Slow."
N:2nd Setting
Z:Transcribed by Chris Falt, cfalt@trytel.com
K:Bb
FGA|Bcd|FGA/2c/2|B3|
FGA|Bcd|F/4B/4z/2 G/4B/4z/2 A/4c/4z/2|cB2||
ddd|eGG|ddc|BG.F|
fe/2c/2B/2A/2|Bcd|F/4B/4z/2 G/4B/4z/2 A/4c/4z/2|cB2||
